symbols/web/add_to_queue/materialsymbolsrounded/add_to_queue_wght600grad200_40px.svg

<svg xmlns="http://www.w3.org/2000/svg" height="40" width="40"><path d="M20 25.208q.708 0 1.229-.479.521-.479.521-1.271v-3.416h3.417q.708 0 1.208-.48.5-.479.5-1.229 0-.75-.5-1.229-.5-.479-1.208-.479H21.75v-3.417q0-.75-.521-1.229Q20.708 11.5 20 11.5q-.708 0-1.208.479t-.5 1.229v3.417h-3.459q-.708 0-1.208.5t-.5 1.208q0 .75.5 1.229.5.48 1.208.48h3.459v3.416q0 .792.5 1.271.5.479 1.208.479Zm-5.125 11.209q-.833 0-1.417-.584-.583-.583-.583-1.458v-1.667H6.292q-1.709 0-2.875-1.166-1.167-1.167-1.167-2.834V7.917q0-1.625 1.167-2.813 1.166-1.187 2.875-1.187h27.416q1.709 0 2.875 1.187 1.167 1.188 1.167 2.813v20.791q0 1.667-1.167 2.834-1.166 1.166-2.875 1.166h-6.583v1.667q0 .875-.583 1.458-.584.584-1.417.584Zm-8.583-7.709h27.416V7.917H6.292v20.791Zm0 0V7.917v20.791Z"/></svg>

<svg xmlns="http://www.w3.org/2000/svg" height="40" width="40"><path d="M20 25.208Q20.708 25.208 21.229 24.729Q21.75 24.25 21.75 23.458V20.042H25.167Q25.875 20.042 26.375 19.562Q26.875 19.083 26.875 18.333Q26.875 17.583 26.375 17.104Q25.875 16.625 25.167 16.625H21.75V13.208Q21.75 12.458 21.229 11.979Q20.708 11.5 20 11.5Q19.292 11.5 18.792 11.979Q18.292 12.458 18.292 13.208V16.625H14.833Q14.125 16.625 13.625 17.125Q13.125 17.625 13.125 18.333Q13.125 19.083 13.625 19.562Q14.125 20.042 14.833 20.042H18.292V23.458Q18.292 24.25 18.792 24.729Q19.292 25.208 20 25.208ZM14.875 36.417Q14.042 36.417 13.458 35.833Q12.875 35.25 12.875 34.375V32.708H6.292Q4.583 32.708 3.417 31.542Q2.25 30.375 2.25 28.708V7.917Q2.25 6.292 3.417 5.104Q4.583 3.917 6.292 3.917H33.708Q35.417 3.917 36.583 5.104Q37.75 6.292 37.75 7.917V28.708Q37.75 30.375 36.583 31.542Q35.417 32.708 33.708 32.708H27.125V34.375Q27.125 35.25 26.542 35.833Q25.958 36.417 25.125 36.417ZM6.292 28.708H33.708Q33.708 28.708 33.708 28.708Q33.708 28.708 33.708 28.708V7.917Q33.708 7.917 33.708 7.917Q33.708 7.917 33.708 7.917H6.292Q6.292 7.917 6.292 7.917Q6.292 7.917 6.292 7.917V28.708Q6.292 28.708 6.292 28.708Q6.292 28.708 6.292 28.708ZM6.292 28.708Q6.292 28.708 6.292 28.708Q6.292 28.708 6.292 28.708V7.917Q6.292 7.917 6.292 7.917Q6.292 7.917 6.292 7.917Q6.292 7.917 6.292 7.917Q6.292 7.917 6.292 7.917V28.708Q6.292 28.708 6.292 28.708Q6.292 28.708 6.292 28.708Z"/></svg>
